X: 1
T: Barry's Trip To Paris
M: 4/4
L: 1/8
R: reel
K: Amix
|dede ~A3d|eAde fged|dede ~G3d|BGdG Bcdg|
eede ~A3d|eAde gabg|agfd edBd|1.e2 .A2 .A2 a2:|2 .e2 .A2 AA eg||
g-aga a-bgb|.a2 .e2 ^d-eef|~g2dg egde|gage dege|
aage a-bgb|.a2 .e2 ^d-eef|gdeg dGBd|1 .e2 .A2 AA eg:|2 .e2 .A2 .A2 a2||
